X: 899
T: Alice's
R: reel
M: 4/4
K: Eminor
EGBG AGED|~E2GE DEB,D|EGBG A2 (3Bcd|e2dB AGED|
EGBG AGED|~E2GE DEB,D|DB,A,B, DEFA|1 ~B2AF GEED:|2 BGAF GEEF||
|:G2DB, DGBG|A2EC EcBA|G2DB, DGBG|1 AcBA GEEF:|2 AcBA GEFD||

